!!!!SEGMENT: pl-sa--481-a-viii-121--043_anonim--marsz.krn
!!!cenid: 18xx:414
!!!COM: Anonim
!!!COM-rismid: pe30004985
!!!CDT:
!!!CNT:
!!!OTL: Marsz
!!!PDT:
!!!AGN: Secular; March
!!!SMS-siglum: PL-SA
!!!SMS-shelfmark: 481/A VIII 121
!!!SMS-shelfwork: 043 W
!!!SMS-variant:
!!!SMS-altvar:
!!!NIFC-rismid: 1001070718
!!!URL-scan: http://bc.bdsandomierz.pl/dlibra/publication/1212/edition/1171/content
!!!ONB-nifc: Str. 28, s. 4-5
**kern	**kern
*part2	*part1
*staff2	*staff1
*Ipiano	*Ipiano
*I"Piano	*I"Piano
*clefF4	*clefG2
*k[]	*k[]
*C:	*C:
*M2/4	*M2/4
!	!LO:TX:a:t=Marsz:rj
8r	16eeLL 16cc\
.	16ffJJ 16dd\
=1	=1
!LO:TX:a:t=P:problem:mixed beam	!
8CC/L	8ggL 8ee\
8C\J	16ggL 16ee\
.	16ggJJ 16ee\
8CC/	8ggL 8ee\
8r	16aaL 16ff\
.	16bbJJ 16gg\
=2	=2
*rep	*
!LO:TX:a:t=P:problem:mixed beam	!
8CC/L	8cccL 8gg 8ee\
8C\J	16cccL 16gg 16ee\
.	16cccJJ 16gg 16ee\
8CC/	16cccLL 16gg 16ee\
.	16bb 16gg\
*Xrep	*
8r	16aa 16ff\
.	16ggJJ 16ee\
=3	=3
4BB 4BBB/	16.ffLL 16.dd\
.	32eeK 32cc\
.	16.ff 16.dd\
.	32ggJJk 32ee\
4C 4CC/	16.eeLL 16.cc\
.	32ddK 32b\
!	!LO:TX:a:t=P:problem:niejednoznaczny zapis dwudźwięku [przyjęto przednutki]. W źródle same główki
.	16qqff 16qqdd/
.	16.ee 16.cc\
.	32ffJJk 32dd\
=4	=4
8GL 8GG\	8ddL 8b 8g\
16GL 16GG\	16ddL 16b 16g\
16GJJ 16GG\	16ddJJ 16b 16g\
8G 8GG\	8ddL 8b 8g\
8r	16eeL 16cc\
.	16ffJJ 16dd\
=5	=5
8CC/L	8ggL 8ee\
8C/J	16ggL 16ee\
.	16ggJJ 16ee\
8CC/	8ggL 8ee\
8r	16aaL 16ff\
.	16bbJJ 16gg\
=6	=6
*rep	*
!LO:TX:a:t=P:problem:mixed beam	!
8CC/L	8cccL 8gg 8ee\
8C\J	16cccL 16gg 16ee\
.	16cccJJ 16gg 16ee\
8CC/	16.cccLL 16.gg 16.ee\
.	32bbK 32gg\
*Xrep	*
8r	16.aa 16.ff\
.	32ggJJk 32ee\
!!LO:LB:g=original
=7	=7
4F 4FF\	16.aaLL 16.ff\
.	32bbK 32gg\
.	16.ccc 16.aa\
.	32aaJJk 32ff\
4G 4GG\	16.ggLL 16.ee\
.	32eeK 32cc\
.	16.ff 16.dd\
.	32eeJJk 32cc\
=8	=8
8CL 8CC/	8eeL 8cc\
16CL 16CC/	16cccL 16gg 16ee\
16CJJ 16CC/	16cccJJ 16gg 16ee\
4C 4CC/	4ccc 4gg 4ee\
=9:|!|:	=9:|!|:
*clefG2	*
!LO:N:vis=16.	!
8.fL 8.d/	16dd\LL
.	16gg\
.	16dd\
!LO:N:vis=16.	!
16G/Jk	16b\JJ
!LO:N:vis=16.	!
8.eL 8.c/	16cc\LL
.	16gg\
.	16ee\
16G/Jk	16cc\JJ
=10	=10
!LO:TX:a:t=P:problem:brak oznaczeń cyfrowych nad powtórzeniami	!LO:TX:a:t=P:problem:brak oznaczeń cyfrowych nad powtórzeniami
!LO:N:vis=16.	!
*rep	*rep
8.fL 8.d/	16dd\LL
.	16gg\
.	16dd\
!LO:N:vis=16.	!
16G/Jk	16b\JJ
!LO:N:vis=16.	!
8.eL 8.c/	16cc\LL
.	16gg\
.	16ee\
16G/Jk	16cc\JJ
*Xrep	*Xrep
=11	=11
!LO:N:vis=16.	!
*rep	*rep
8.fL 8.d/	16dd\LL
.	16gg\
.	16dd\
!LO:N:vis=16.	!
16G/Jk	16b\JJ
!LO:N:vis=16.	!
8.eL 8.c/	16cc\LL
.	16gg\
.	16ee\
16G/Jk	16cc\JJ
*Xrep	*Xrep
=12	=12
16fLL 16d/	16dd\LL
16G/JJ	16gg\
16eLL 16c/	16ee\
16G/JJ	16gg\JJ
8d 8B/	8ddL 8b\
8r	16eeL 16cc\
.	16ffJJ 16dd\
!LO:CL:ed	!
*clefF4	*
=13	=13
!LO:TX:a:t=P:problem:brak zmiany klucza	!
!LO:TX:a:t=P:problem:mixed beam	!
8CC/L	8ggL 8ee\
8C\J	16ggL 16ee\
.	16ggJJ 16ee\
8CC/	8gg 8ee\
8r	16aa 16ff\
.	16bb 16gg\
=14	=14
*rep	*
!LO:TX:a:t=P:problem:mixed beam	!
8CC/L	8cccL 8gg 8ee\
8C\J	16cccL 16gg 16ee\
.	16ggJJ 16ee\
8CC/	16cccLL 16gg 16ee\
.	16bb 16gg\
*Xrep	*
8r	16ccc 16gg\
.	16ggJJ 16ee\
=15	=15
!LO:TX:a:t=P:problem:mixed beam	!
8F\L	16.aaLL 16.ff\
.	32bbK 32gg\
!	!LO:N:vis=8
8FF/J	16.ccc 16.aa\
.	32aaJJk 32ff\
!LO:TX:a:t=P:problem:mixed beam	!
8G\L	16.ggLL 16.ee\
.	32ffK 32dd\
8GG/J	16.ee 16.cc\
.	32ddJJk 32b\
=16	=16
8CL 8CC/	8eeL 8cc\
16CL 16CC/	16.cccL 16.gg 16.ee\
16CJJ 16CC/	.
.	32cccJJk 32gg 32ee\
4C 4CC/	4ccc 4gg 4ee\
=:|!	=:|!
*-	*-
!!!system-decoration: [(s1,s2)]
!!!RDF**kern: > = above
!!!RDF**kern: < = below
!!!EED: Mateusz Mrugas
!!!EST: 2020-11-23
!!!AIN: 2 piano
!!!ENC: Andrzej Kubiczek
!!!END: 2020-06-16
